X:0168
T:Pease upon a Trencher.
M:2/4
L:1/8
Q:1/4=104
I: :: ::
Z:Jack Campin * www.campin.me.uk * 2009
K:G
GDGA|B2B2|AGAB|c2c2|GABc|dedB|cAdB|G2G2:|
gGGA|B2AG|aAAB|c2BA|GABc|dedB|cAdB|G2G2:|

